packages/app/src/assets/pijl-omlaag.svg

<svg width="24" height="24" viewBox="0 0 24 24" fill="currentColor" xmlns="http://www.w3.org/2000/svg" focusable="false">
	<path d="M19.7141 10.5C19.3141 10 18.6141 10 18.1141 10.3L14.5141 12.7V4.7C14.5141 3.4 13.4141 3 12.1141 3C10.9141 3 9.51409 3.4 9.51409 4.7V12.7L5.91409 10.3C5.41409 9.9 4.71409 10 4.31409 10.5C3.91409 11 3.91409 11.6 4.21409 12.1L11.0141 20.6C11.2141 20.9 11.6141 21.1 12.0141 21.1C12.4141 21.1 12.7141 20.9 13.0141 20.6L19.8141 12.1C20.2141 11.6 20.1141 10.9 19.7141 10.5Z" fill="currentColor" />
</svg>

<svg focusable="false" viewBox="0 0 24 24" fill="none" xmlns="http://www.w3.org/2000/svg"><path d="M19.714 10.5c-.4-.5-1.1-.5-1.6-.2l-3.6 2.4v-8c0-1.3-1.1-1.7-2.4-1.7-1.2 0-2.6.4-2.6 1.7v8l-3.6-2.4c-.5-.4-1.2-.3-1.6.2-.4.5-.4 1.1-.1 1.6l6.8 8.5c.2.3.6.5 1 .5s.7-.2 1-.5l6.8-8.5c.4-.5.3-1.2-.1-1.6z" fill="currentColor"/></svg>
